X:582
T: Qiongren shui bupan hongjun
N: C2003
O: China, Fujian Yongding
S: II, 582, 1)]
R: Shange]
M: 2/4
L: 1/16
K: C
c2c2e2ed | c2e2d4- | d6cA | c2d2c2G2 | A8
A2A2d2d2 | A2cdc2A2 | c2d2c2A2 | G2A2G4- | G8

